svg/u1f91c_1f3fd.svg

<svg viewBox="0 0 128 128" xmlns="http://www.w3.org/2000/svg">
  <radialGradient id="a" cx="92.651" cy="38.736" gradientTransform="matrix(-1.0127 0 0 1.0127 137.69 -.4912)" gradientUnits="userSpaceOnUse" r="108.47">
    <stop offset="0" stop-color="#BA8D68"/>
    <stop offset="1" stop-color="#A47B62"/>
  </radialGradient>
  <path d="m80.96 108.36c-1.08 0-2.07-0.14-2.93-0.43-7.87-2.62-19.14-7.93-25.29-13.38-2.81-2.48-4.87-4.71-6.87-6.87-4.12-4.44-8.01-8.63-17.16-13.58-3.16-1.71-8.58-2.07-12.56-2.07-1.29 0-2.12 0.04-2.12 0.04-6.28 0-8.53-7.69-8.53-14.28l1.74-31.68c0.52-2.7 2.63-5.73 6.07-6.07 2.59-0.26 6.43-0.4 11.09-0.4 18.08 0 46.45 2.04 60.76 5.34 31.8 7.34 36.8 11.47 37.34 21.83l-1.06 43.17c-0.28 4.78-4.25 8.58-9.07 8.67l-15.99-2.97c-0.09-0.02-0.18-0.03-0.27-0.03-0.33 0-0.65 0.11-0.91 0.31-0.34 0.26-0.55 0.65-0.58 1.07 0 0.04-0.36 4.12-2.31 6.73-1.41 1.88-6.53 4.6-11.35 4.6z" fill="url(#a)"/>
  <path d="m24.4 18.14v3c18 0 46.22 2.03 60.42 5.31 30.78 7.1 35.67 10.95 36.18 20.39l-1.05 43.06c-0.25 3.97-3.49 7.11-7.45 7.25l-15.84-2.94c-0.18-0.03-0.36-0.05-0.55-0.05-0.65 0-1.3 0.21-1.83 0.62-0.67 0.52-1.1 1.3-1.17 2.14-0.08 0.94-0.61 4.06-2.02 5.94-1.2 1.6-5.99 3.99-10.14 3.99-0.92 0-1.75-0.12-2.45-0.35-7.73-2.58-18.78-7.77-24.77-13.08-2.75-2.44-4.79-4.64-6.77-6.77-4.2-4.53-8.18-8.81-17.54-13.88-3.44-1.86-9.12-2.25-13.28-2.25-1.08 0-1.85 0.03-2.1 0.04-6.72-0.05-7.03-11.06-7.04-12.69l1.73-31.57c0.45-2.14 2.09-4.5 4.72-4.77 2.55-0.26 6.33-0.39 10.94-0.39l0.01-3m0 0c-4.63 0-8.52 0.13-11.24 0.41-4.05 0.41-6.77 3.85-7.41 7.38l-1.75 31.87c0 7.64 2.78 15.78 10.11 15.78 0 0 0.8-0.04 2.04-0.04 3.06 0 8.8 0.24 11.85 1.89 13.27 7.18 15 12.5 23.75 20.25 6.77 6 18.65 11.29 25.81 13.68 1.06 0.35 2.21 0.51 3.4 0.51 5.02 0 10.72-2.76 12.54-5.19 2.25-3 2.61-7.51 2.61-7.51l16.14 2.99c5.68-0.02 10.37-4.46 10.69-10.13l1.06-43.23c-0.59-11.72-7.32-16.07-38.51-23.27-14.88-3.44-43.38-5.39-61.09-5.39z" fill="#91674D"/>
  <path d="m100.17 68.53c-7.1-4.4-26.79-16.52-28.79-3.3-1.21 8.01 7.24 15.94 12.8 20.52 4.15 3.42 8.88 6.15 13.39 9.09 1.48 0.97-3.11 2.95-4.54 1.89-3.96-2.95-8.78-6.79-13.72-11.6-5.9-5.75-13.26-14.21-9.93-23.07 4.87-12.95 25.16-0.12 31.64 5.49 1.35 1.19-0.85 0.98-0.85 0.98z" fill="#91674D"/>
  <path d="m74.58 56.08c-3.85 4.33-6.74 10.11-1.44 19.57 1.1 1.97 0.44 2.54-0.85 0.74-7.98-11.16-6.21-17.9 1.17-22.72 5.74-3.74 10.43-2.57 10.43-2.57s-5.83 1.07-9.31 4.98z" fill="#91674D"/>
</svg>

<svg viewBox="0 0 128 128" xmlns="http://www.w3.org/2000/svg">
  <defs>
    <radialGradient id="a" cx="-43.312267" cy="38.25096" gradientTransform="matrix(-1.0127 0 0 1.0127 0 0)" gradientUnits="userSpaceOnUse" r="108.47">
      <stop offset="0" stop-color="#BA8D68"/>
      <stop offset="1" stop-color="#A47B62"/>
    </radialGradient>
  </defs>
  <path d="M80.96,108.36 C79.88,108.36 78.89,108.22 78.03,107.93 C70.16,105.31 58.89,100 52.74,94.55 C49.93,92.07 47.87,89.84 45.87,87.68 C41.75,83.24 37.86,79.05 28.71,74.1 C25.55,72.39 20.13,72.03 16.15,72.03 C14.86,72.03 14.03,72.07 14.03,72.07 C7.75,72.07 5.5,64.38 5.5,57.79 L7.24,26.11 C7.76,23.41 9.87,20.38 13.31,20.04 C15.9,19.78 19.74,19.64 24.4,19.64 C42.48,19.64 70.85,21.68 85.16,24.98 C116.96,32.32 121.96,36.45 122.5,46.81 L121.44,89.98 C121.16,94.76 117.19,98.56 112.37,98.65 L96.38,95.68 C96.29,95.66 96.2,95.65 96.11,95.65 C95.78,95.65 95.46,95.76 95.2,95.96 C94.86,96.22 94.65,96.61 94.62,97.03 C94.62,97.07 94.26,101.15 92.31,103.76 C90.9,105.64 85.78,108.36 80.96,108.36 Z" fill="url(#a)"/>
  <path d="M24.4,18.14 L24.4,21.14 C42.4,21.14 70.62,23.17 84.82,26.45 C115.6,33.55 120.49,37.4 121,46.84 L119.95,89.9 C119.7,93.87 116.46,97.01 112.5,97.15 L96.66,94.21 C96.48,94.18 96.3,94.16 96.11,94.16 C95.46,94.16 94.81,94.37 94.28,94.78 C93.61,95.3 93.18,96.08 93.11,96.92 C93.03,97.86 92.5,100.98 91.09,102.86 C89.89,104.46 85.1,106.85 80.95,106.85 C80.03,106.85 79.2,106.73 78.5,106.5 C70.77,103.92 59.72,98.73 53.73,93.42 C50.98,90.98 48.94,88.78 46.96,86.65 C42.76,82.12 38.78,77.84 29.42,72.77 C25.98,70.91 20.3,70.52 16.14,70.52 C15.06,70.52 14.29,70.55 14.04,70.56 C7.32,70.51 7.01,59.5 7,57.87 L8.73,26.3 C9.18,24.16 10.82,21.8 13.45,21.53 C16,21.27 19.78,21.14 24.39,21.14 L24.4,18.14 M24.4,18.14 C19.77,18.14 15.88,18.27 13.16,18.55 C9.11,18.96 6.39,22.4 5.75,25.93 L4,57.8 C4,65.44 6.78,73.58 14.11,73.58 C14.11,73.58 14.91,73.54 16.15,73.54 C19.21,73.54 24.95,73.78 28,75.43 C41.27,82.61 43,87.93 51.75,95.68 C58.52,101.68 70.4,106.97 77.56,109.36 C78.62,109.71 79.77,109.87 80.96,109.87 C85.98,109.87 91.68,107.11 93.5,104.68 C95.75,101.68 96.11,97.17 96.11,97.17 L112.25,100.16 C117.93,100.14 122.62,95.7 122.94,90.03 L124,46.8 C123.41,35.08 116.68,30.73 85.49,23.53 C70.61,20.09 42.11,18.14 24.4,18.14 Z" fill="#91674D"/>
  <path d="M100.17,68.53 C93.07,64.13 73.38,52.01 71.38,65.23 C70.17,73.24 78.62,81.17 84.18,85.75 C88.33,89.17 93.06,91.9 97.57,94.84 C99.05,95.81 94.46,97.79 93.03,96.73 C89.07,93.78 84.25,89.94 79.31,85.13 C73.41,79.38 66.05,70.92 69.38,62.06 C74.25,49.11 94.54,61.94 101.02,67.55 C102.37,68.74 100.17,68.53 100.17,68.53 Z" fill="#91674D"/>
  <path d="M74.58,56.08 C70.73,60.41 67.84,66.19 73.14,75.65 C74.24,77.62 73.58,78.19 72.29,76.39 C64.31,65.23 66.08,58.49 73.46,53.67 C79.2,49.93 83.89,51.1 83.89,51.1 C83.89,51.1 78.06,52.17 74.58,56.08 Z" fill="#91674D"/>
</svg>
